dist/assets/img/catalog/search.svg

<svg width="50" height="54" viewBox="0 0 50 54" fill="none" xmlns="http://www.w3.org/2000/svg">
<path d="M49.7268 51.566L35.159 36.189C38.8747 32.4066 41.1767 27.1924 41.1767 21.4418C41.1767 9.91874 31.9414 0.545044 20.5884 0.545044C9.23535 0.545044 0 9.91874 0 21.4418C0 32.9649 9.23535 42.3386 20.5884 42.3386C25.5717 42.3386 30.1453 40.5305 33.71 37.5303L48.313 52.9452C48.5052 53.1492 48.7621 53.2507 49.0199 53.2507C49.265 53.2507 49.5091 53.1581 49.6993 52.973C50.0895 52.5919 50.1013 51.962 49.7268 51.566ZM20.5884 40.3484C10.3167 40.3484 1.9608 31.8673 1.9608 21.4418C1.9608 11.0163 10.3167 2.53521 20.5884 2.53521C30.86 2.53521 39.2159 11.0163 39.2159 21.4418C39.2159 31.8673 30.859 40.3484 20.5884 40.3484Z" fill="black"/>
</svg>

<svg width="50" height="54" fill="none" xmlns="http://www.w3.org/2000/svg"><path d="M49.727 51.566L35.159 36.189a20.989 20.989 0 006.018-14.747C41.177 9.919 31.94.545 20.588.545 9.235.545 0 9.919 0 21.442c0 11.523 9.235 20.897 20.588 20.897 4.984 0 9.557-1.808 13.122-4.809l14.603 15.415a.966.966 0 001.386.028c.39-.381.402-1.011.028-1.407zM20.588 40.348c-10.271 0-18.627-8.48-18.627-18.906 0-10.426 8.356-18.907 18.627-18.907 10.272 0 18.628 8.481 18.628 18.907 0 10.425-8.357 18.906-18.628 18.906z" fill="#000"/></svg>
